X:21
T:Steyrer Tanz in C, nr. 1
C:traditionell
R:Steirer
A:Hallstatt, Salzkammergut
B:Corpus Musicae Popularis Austriacae (COMPA), 5.Band: J.M.Schmalnauer " Tanz Musik", Verlag Boehlau, Wien 1996
S:manuscript des Johann Michael Schmalnauer um 1820
N:im der quelle in C
Z:abc transcription Simon Wascher
F:http://simonwascher.info/TradArchiv/
M:3/4
L:1/8
K:C
V:1
%violino 1mo
GF |\
(EG)(cE)(Gc) | DFBD TF2 | DFBDFB | cGEG, CE |\
EGcEGc | DFBD TF2 | DFBDFB | c2 "in G" C4 :|\
V:2
%violino 2do
ed |\
GceGce | GBdG TB2 | GBdGBd | gecG EG |\
GceGce | GBdG B2 | GBdGBd | e4 :| "in G" |\
